src/assets/images/logo.svg

<svg fill="none" height="37" viewBox="0 0 99 37" width="99" xmlns="http://www.w3.org/2000/svg"><g fill="#2e9afe"><path d="m42.3692 28.9632c-2.1644 0-3.9216 1.7993-3.9216 4.0177 0 2.2199 1.7572 4.0192 3.9216 4.0192 2.166 0 3.9216-1.7993 3.9216-4.0192 0-2.2184-1.7556-4.0177-3.9216-4.0177zm0 6.7478c-1.4716 0-2.6638-1.2219-2.6638-2.7301 0-1.5067 1.1922-2.7302 2.6638-2.7302s2.6638 1.2235 2.6638 2.7302c0 1.5082-1.1922 2.7301-2.6638 2.7301zm-10.8939-1.0188v-4.4031h2.1457v-1.03h-2.1457v-2.1432h-1.2703v2.1432h-1.5761v1.03h1.5761v4.5998c0 1.569 1.1782 2.4359 3.4831 1.7578l.0031-1.1468c-1.1329.3103-2.1831.2911-2.2159-.8077zm26.3195-3.5282c.0406-.3279.2544-.9069 1.2625-.9069 1.406 0 1.7696.8733 1.7696.8733l1.0112-.7757c-.6772-.8861-1.6853-1.2843-2.6466-1.2955-1.7868-.0208-2.6669 1.0492-2.6778 2.1288-.025 2.8133 4.1384 1.5578 4.2165 3.2739.0718 1.5306-2.7684 1.537-3.5361.2287l-.9488.7757s.6367 1.4171 2.837 1.4171c1.8695 0 3.0196-1.134 2.9977-2.3287-.0499-2.687-4.474-1.8585-4.2852-3.3907zm-55.93955 0c.04057-.3279.25436-.9069 1.26401-.9069 1.40602 0 1.76806.8733 1.76806.8733l1.01277-.7757c-.67726-.8861-1.68691-1.2843-2.64818-1.2955-1.78679-.0208-2.666915 1.0492-2.676278 2.1288-.026529 2.8133 4.136908 1.5578 4.216498 3.2739.07022 1.5306-2.76835 1.537-3.53768.2287l-.948786.7757s.636687 1.4171 2.837006 1.4171c1.87105 0 3.02115-1.134 2.99774-2.3287-.04994-2.687-4.47242-1.8585-4.28516-3.3907zm9.27725-2.2008c-2.16601 0-3.92158 1.7993-3.92158 4.0177 0 2.2199 1.75557 4.0192 3.92158 4.0192 2.1644 0 3.92-1.7993 3.92-4.0192 0-2.2184-1.7556-4.0177-3.92-4.0177zm0 6.7478c-1.47158 0-2.66381-1.2219-2.66381-2.7301 0-1.5067 1.19223-2.7302 2.66381-2.7302 1.47 0 2.6638 1.2235 2.6638 2.7302 0 1.5082-1.1938 2.7301-2.6638 2.7301zm24.7793-10.2744c-.4993 0-.9051.4142-.9051.9276 0 .5118.4058.9277.9051.9277.5009 0 .9067-.4159.9067-.9277 0-.5134-.4058-.9276-.9067-.9276zm-9.7984 3.8097v4.0401c0 1.2667-1.0128 2.3063-2.2503 2.3063h-.1264c-.9004 0-1.637-.7549-1.637-1.6778v-4.6686h-1.2702v4.8429c0 1.4987 1.1953 2.7254 2.6591 2.7254h.3511c.9597 0 1.8071-.5294 2.2737-1.3179v1.15h1.2702v-7.4004zm25.9825-.1695h-.3511c-.9613 0-1.8071.5294-2.2753 1.3179v-1.1484h-1.2702v7.4004h1.2702v-4.0401c0-1.2683 1.0128-2.3063 2.2503-2.3063h.1279c.8989 0 1.6355.7549 1.6355 1.6762v4.6702h1.2718v-4.843c0-1.5002-1.1969-2.7269-2.6591-2.7269zm-16.8208.1695v7.4004h1.2718v-7.4004zm-18.1549-4.5518v11.9522h1.2718v-11.9522z"/><path d="m51.5846 5.52108c-3.391 0-6.1421 2.81971-6.1421 6.29682 0 3.477 2.7511 6.2951 6.1421 6.2951 3.3926 0 6.1437-2.8181 6.1437-6.2951 0-3.47711-2.7511-6.29682-6.1437-6.29682zm0 0c-3.391 0-6.1421 2.81971-6.1421 6.29682 0 3.477 2.7511 6.2951 6.1421 6.2951 3.3926 0 6.1437-2.8181 6.1437-6.2951 0-3.47711-2.7511-6.29682-6.1437-6.29682zm10.0481-5.245986h-3.9044c-.6944 0-1.2593.566183-1.278 1.273116-.6273-.31348-1.2874-.567786-1.9709-.754914-.927-.255902-1.8976-.391849-2.8948-.391849-3.0742 0-5.8597 1.277903-7.8759 3.344313-2.0146 2.0648-3.2614 4.9197-3.2614 8.07214 0 3.1523 1.2468 6.0056 3.2614 8.072 2.0162 2.0664 4.8017 3.3444 7.8759 3.3444 1.0097 0 1.999-.144 2.9494-.4111.6913-.1951 1.3561-.4558 1.9881-.7773.1748.5102.6476.8765 1.2062.8765h3.9044c.7054 0 1.2781-.587 1.2781-1.3099v-20.02751c0-.722921-.5727-1.309896-1.2781-1.309896zm0 21.337406h-3.9044v-.4574c0-.7182-.3667-1.1004-1.1048-.6494-1.4747.9005-3.1975 1.4171-5.0389 1.4171-5.4446 0-9.8593-4.5247-9.8593-10.1049 0-5.5819 4.4147-10.10656 9.8593-10.10656 1.804 0 3.494.49741 4.9468 1.36268.6227.36945 1.1969.55178 1.1969-.48302v-1.00601h3.9044zm-10.0481-16.09142c-3.391 0-6.1421 2.81971-6.1421 6.29682 0 3.477 2.7511 6.2951 6.1421 6.2951 3.3926 0 6.1437-2.8181 6.1437-6.2951 0-3.47711-2.7511-6.29682-6.1437-6.29682zm0 0c-3.391 0-6.1421 2.81971-6.1421 6.29682 0 3.477 2.7511 6.2951 6.1421 6.2951 3.3926 0 6.1437-2.8181 6.1437-6.2951 0-3.47711-2.7511-6.29682-6.1437-6.29682zm0 0c-3.391 0-6.1421 2.81971-6.1421 6.29682 0 3.477 2.7511 6.2951 6.1421 6.2951 3.3926 0 6.1437-2.8181 6.1437-6.2951 0-3.47711-2.7511-6.29682-6.1437-6.29682zm24.7653-5.388331c-.0577 0-.1155.004799-.1701.012796-2.9665.220715-5.6272 1.605785-7.5482 3.705775-1.9319 2.11278-3.1179 4.94689-3.1179 8.04648v9.6747c0 .7245.5727 1.3115 1.2781 1.3115h4.1931c.7069 0 1.2796-.587 1.2796-1.3115v-9.6747c0-1.2395.4588-2.37666 1.211-3.23713.763-.87327 1.8258-1.46824 3.0149-1.60418.6538-.07358 1.1376-.64136 1.136-1.29871h.0031v-4.31354c0-.724517-.5727-1.311491-1.2796-1.311491zm0 5.625031c-2.9993.34227-5.365 2.98126-5.365 6.14002v9.6747h-4.1931v-9.6747c0-5.53225 4.243-10.10009 9.5581-10.45356zm22.3387 12.76312-2.6638-3.162c-.0203-.0256-.0406-.0512-.0624-.0768-.4744-.5342-1.2827-.5726-1.8039-.0863-.4245.3934-.9161.7085-1.4544.9228-.5135.2031-1.0799.3135-1.6807.3135-1.289 0-2.4563-.5358-3.3005-1.4011s-1.367-2.06-1.367-3.3811.5228-2.51741 1.367-3.38268 2.0115-1.40106 3.3005-1.40106c.5821 0 1.1314.10396 1.6292.29428.5024.19193.9659.47182 1.3732.82209.0297.03039.0624.05757.0952.08636.5555.44623 1.3576.34707 1.793-.22071l2.5593-3.34271-.0032-.0016c.4261-.55339.3449-1.35628-.1857-1.8105-1.0034-.85408-2.1519-1.53541-3.405-1.999235-1.2125-.449427-2.5124-.694135-3.856-.694135-3.1382 0-5.9799 1.3035-8.0382 3.41149-2.0567 2.10799-3.3286 5.02047-3.3286 8.23841 0 3.2164 1.2719 6.1289 3.3286 8.2368 2.0583 2.108 4.9 3.4115 8.0382 3.4115 1.392 0 2.7309-.2591 3.9699-.7341.0234-.0064.0453-.016.0687-.024 1.3015-.507 2.489-1.2539 3.5127-2.1863l-.0016-.0016c.5197-.475.5727-1.2907.1155-1.8313zm-7.6652 3.4674c-5.5726 0-10.0887-4.6286-10.0887-10.3384 0-5.71138 4.5161-10.34 10.0887-10.34 2.4515 0 4.6987.89725 6.4465 2.38788l-2.5593 3.34111c-1.0424-.92444-2.4016-1.48263-3.8872-1.48263-3.2833 0-5.9456 2.72695-5.9456 6.09364 0 3.3651 2.6623 6.0937 5.9456 6.0937 1.5371 0 2.9384-.5998 3.9949-1.5802l2.7075 3.2131c-1.7821 1.625-4.1291 2.6118-6.7024 2.6118zm-39.4388-16.46722c-3.391 0-6.1421 2.81971-6.1421 6.29682 0 3.477 2.7511 6.2951 6.1421 6.2951 3.3926 0 6.1437-2.8181 6.1437-6.2951 0-3.47711-2.7511-6.29682-6.1437-6.29682zm0 0c-3.391 0-6.1421 2.81971-6.1421 6.29682 0 3.477 2.7511 6.2951 6.1421 6.2951 3.3926 0 6.1437-2.8181 6.1437-6.2951 0-3.47711-2.7511-6.29682-6.1437-6.29682z"/><path d="m34.9757 3.57142c-1.0424-1.06839-2.283-1.93206-3.6578-2.53183-1.3748-.598166-2.8838-.929238-4.4662-.929238-1.3842 0-2.7153.251102-3.9543.716523-1.2656.476615-2.4344 1.183545-3.4612 2.079205l-.0765.06557c-.0952.08317-.1295.15194-.1389.20792-.1217-.11036-.2544-.22871-.2996-.2687-1.0222-.88766-2.1957-1.59778-3.4737-2.079197-.618-.23351-1.2593-.414239-1.9194-.535792-.6586-.121553-1.3358-.185529-2.0271-.185529-3.16476 0-6.04078 1.325888-8.12406 3.461068-2.08328 2.13678-3.37694 5.08444-3.37694 8.32638v9.3692c0 .7245.571147 1.3099 1.27806 1.3099h4.19309c.70691 0 1.27962-.5854 1.27962-1.3099v-9.3692c0-1.3323.53681-2.5494 1.39977-3.43386.86141-.88446 2.04896-1.43465 3.35046-1.43465 1.3014 0 2.4874.55019 3.3504 1.43465.8629.88446 1.3998 2.10156 1.3998 3.43386v9.3692c0 .7245.5727 1.3099 1.2796 1.3099h4.1931c.7053 0 1.278-.5854 1.278-1.3099v-12.21289c.4089-.57418.9379-1.05719 1.5512-1.41066.6803-.39025 1.4653-.61416 2.2986-.61416 1.2999 0 2.4874.55019 3.3504 1.43465s1.3998 2.10156 1.3998 3.43386v9.3692c0 .7245.5727 1.3099 1.278 1.3099h4.1947c.7053 0 1.278-.5854 1.278-1.3099v-9.3692c0-3.24194-1.2936-6.1896-3.3769-8.32638zm2.0989 17.69558h-4.1947v-9.3692c0-3.38908-2.7215-6.17841-6.0282-6.17841-2.1551 0-4.0605 1.18355-5.1278 2.94607v12.60154h-4.1931v-9.3692c0-3.38908-2.7216-6.17841-6.0298-6.17841-3.30832 0-6.02985 2.78933-6.02985 6.17841v9.3692h-4.19309v-9.3692c0-2.88208 1.15009-5.50027 3.00242-7.40034 1.85388-1.89846 4.41-3.07721 7.22052-3.07721 2.5077 0 4.8126.93884 6.5962 2.48864 1.1002.95803.9285 1.06519 2.1629-.01119.8926-.77731 1.9132-1.39787 3.0258-1.8217 1.1111-.42544 2.3127-.65575 3.5658-.65575 5.6225 0 10.2229 4.71498 10.2229 10.47755z"/></g></svg>

<svg width="99" height="37" viewBox="0 0 99 37" fill="none" xmlns="http://www.w3.org/2000/svg">
<path d="M42.3692 28.9632C40.2048 28.9632 38.4476 30.7625 38.4476 32.9809C38.4476 35.2008 40.2048 37.0001 42.3692 37.0001C44.5352 37.0001 46.2908 35.2008 46.2908 32.9809C46.2908 30.7625 44.5352 28.9632 42.3692 28.9632ZM42.3692 35.711C40.8976 35.711 39.7054 34.4891 39.7054 32.9809C39.7054 31.4742 40.8976 30.2507 42.3692 30.2507C43.8408 30.2507 45.033 31.4742 45.033 32.9809C45.033 34.4891 43.8408 35.711 42.3692 35.711ZM31.4753 34.6922V30.2891H33.621V29.2591H31.4753V27.1159H30.205V29.2591H28.6289V30.2891H30.205V34.8889C30.205 36.4579 31.3832 37.3248 33.6881 36.6467L33.6912 35.4999C32.5583 35.8102 31.5081 35.791 31.4753 34.6922ZM57.7948 31.164C57.8354 30.8361 58.0492 30.2571 59.0573 30.2571C60.4633 30.2571 60.8269 31.1304 60.8269 31.1304L61.8381 30.3547C61.1609 29.4686 60.1528 29.0704 59.1915 29.0592C57.4047 29.0384 56.5246 30.1084 56.5137 31.188C56.4887 34.0013 60.6521 32.7458 60.7302 34.4619C60.802 35.9925 57.9618 35.9989 57.1941 34.6906L56.2453 35.4663C56.2453 35.4663 56.882 36.8834 59.0823 36.8834C60.9518 36.8834 62.1019 35.7494 62.08 34.5547C62.0301 31.8677 57.606 32.6962 57.7948 31.164ZM1.85525 31.164C1.89582 30.8361 2.10961 30.2571 3.11926 30.2571C4.52528 30.2571 4.88732 31.1304 4.88732 31.1304L5.90009 30.3547C5.22283 29.4686 4.21318 29.0704 3.25191 29.0592C1.46512 29.0384 0.584995 30.1084 0.575632 31.188C0.549103 34.0013 4.71254 32.7458 4.79213 34.4619C4.86235 35.9925 2.02378 35.9989 1.25445 34.6906L0.305664 35.4663C0.305664 35.4663 0.942351 36.8834 3.14267 36.8834C5.01372 36.8834 6.16382 35.7494 6.14041 34.5547C6.09047 31.8677 1.66799 32.6962 1.85525 31.164ZM11.1325 28.9632C8.96649 28.9632 7.21092 30.7625 7.21092 32.9809C7.21092 35.2008 8.96649 37.0001 11.1325 37.0001C13.2969 37.0001 15.0525 35.2008 15.0525 32.9809C15.0525 30.7625 13.2969 28.9632 11.1325 28.9632ZM11.1325 35.711C9.66092 35.711 8.46869 34.4891 8.46869 32.9809C8.46869 31.4742 9.66092 30.2507 11.1325 30.2507C12.6025 30.2507 13.7963 31.4742 13.7963 32.9809C13.7963 34.4891 12.6025 35.711 11.1325 35.711ZM35.9118 25.4366C35.4125 25.4366 35.0067 25.8508 35.0067 26.3642C35.0067 26.876 35.4125 27.2919 35.9118 27.2919C36.4127 27.2919 36.8185 26.876 36.8185 26.3642C36.8185 25.8508 36.4127 25.4366 35.9118 25.4366ZM26.1134 29.2463V33.2864C26.1134 34.5531 25.1006 35.5927 23.8631 35.5927H23.7367C22.8363 35.5927 22.0997 34.8378 22.0997 33.9149V29.2463H20.8295V34.0892C20.8295 35.5879 22.0248 36.8146 23.4886 36.8146H23.8397C24.7994 36.8146 25.6468 36.2852 26.1134 35.4967V36.6467H27.3836V29.2463H26.1134ZM52.0959 29.0768H51.7448C50.7835 29.0768 49.9377 29.6062 49.4695 30.3947V29.2463H48.1993V36.6467H49.4695V32.6066C49.4695 31.3383 50.4823 30.3003 51.7198 30.3003H51.8477C52.7466 30.3003 53.4832 31.0552 53.4832 31.9765V36.6467H54.755V31.8037C54.755 30.3035 53.5581 29.0768 52.0959 29.0768ZM35.2751 29.2463V36.6467H36.5469V29.2463H35.2751ZM17.1202 24.6945V36.6467H18.392V24.6945H17.1202Z" fill="#2E9AFE"/>
<path d="M51.5846 5.52108C48.1936 5.52108 45.4425 8.34079 45.4425 11.8179C45.4425 15.2949 48.1936 18.113 51.5846 18.113C54.9772 18.113 57.7283 15.2949 57.7283 11.8179C57.7283 8.34079 54.9772 5.52108 51.5846 5.52108ZM51.5846 5.52108C48.1936 5.52108 45.4425 8.34079 45.4425 11.8179C45.4425 15.2949 48.1936 18.113 51.5846 18.113C54.9772 18.113 57.7283 15.2949 57.7283 11.8179C57.7283 8.34079 54.9772 5.52108 51.5846 5.52108ZM61.6327 0.275094H57.7283C57.0339 0.275094 56.469 0.841277 56.4503 1.54821C55.823 1.23473 55.1629 0.980424 54.4794 0.793296C53.5524 0.537394 52.5818 0.401447 51.5846 0.401447C48.5104 0.401447 45.7249 1.67935 43.7087 3.74576C41.6941 5.81056 40.4473 8.66546 40.4473 11.8179C40.4473 14.9702 41.6941 17.8235 43.7087 19.8899C45.7249 21.9563 48.5104 23.2343 51.5846 23.2343C52.5943 23.2343 53.5836 23.0903 54.534 22.8232C55.2253 22.6281 55.8901 22.3674 56.5221 22.0459C56.6969 22.5561 57.1697 22.9224 57.7283 22.9224H61.6327C62.3381 22.9224 62.9108 22.3354 62.9108 21.6125V1.58499C62.9108 0.862069 62.3381 0.275094 61.6327 0.275094ZM61.6327 21.6125H57.7283V21.1551C57.7283 20.4369 57.3616 20.0547 56.6235 20.5057C55.1488 21.4062 53.426 21.9228 51.5846 21.9228C46.14 21.9228 41.7253 17.3981 41.7253 11.8179C41.7253 6.236 46.14 1.71134 51.5846 1.71134C53.3886 1.71134 55.0786 2.20875 56.5314 3.07402C57.1541 3.44347 57.7283 3.6258 57.7283 2.591V1.58499H61.6327V21.6125ZM51.5846 5.52108C48.1936 5.52108 45.4425 8.34079 45.4425 11.8179C45.4425 15.2949 48.1936 18.113 51.5846 18.113C54.9772 18.113 57.7283 15.2949 57.7283 11.8179C57.7283 8.34079 54.9772 5.52108 51.5846 5.52108ZM51.5846 5.52108C48.1936 5.52108 45.4425 8.34079 45.4425 11.8179C45.4425 15.2949 48.1936 18.113 51.5846 18.113C54.9772 18.113 57.7283 15.2949 57.7283 11.8179C57.7283 8.34079 54.9772 5.52108 51.5846 5.52108ZM51.5846 5.52108C48.1936 5.52108 45.4425 8.34079 45.4425 11.8179C45.4425 15.2949 48.1936 18.113 51.5846 18.113C54.9772 18.113 57.7283 15.2949 57.7283 11.8179C57.7283 8.34079 54.9772 5.52108 51.5846 5.52108ZM76.3499 0.132749C76.2922 0.132749 76.2344 0.137548 76.1798 0.145545C73.2133 0.36626 70.5526 1.75133 68.6316 3.85132C66.6997 5.9641 65.5137 8.79821 65.5137 11.8978V21.5725C65.5137 22.297 66.0864 22.884 66.7918 22.884H70.9849C71.6918 22.884 72.2645 22.297 72.2645 21.5725V11.8978C72.2645 10.6583 72.7233 9.52114 73.4755 8.66067C74.2385 7.7874 75.3013 7.19243 76.4904 7.05649C77.1442 6.98291 77.628 6.41513 77.6264 5.75778H77.6295V1.44424C77.6295 0.719723 77.0568 0.132749 76.3499 0.132749ZM76.3499 5.75778C73.3506 6.10005 70.9849 8.73904 70.9849 11.8978V21.5725H66.7918V11.8978C66.7918 6.36555 71.0348 1.79771 76.3499 1.44424V5.75778ZM98.6886 18.5209L96.0248 15.3589C96.0045 15.3333 95.9842 15.3077 95.9624 15.2821C95.488 14.7479 94.6797 14.7095 94.1585 15.1958C93.734 15.5892 93.2424 15.9043 92.7041 16.1186C92.1906 16.3217 91.6242 16.4321 91.0234 16.4321C89.7344 16.4321 88.5671 15.8963 87.7229 15.031C86.8787 14.1657 86.3559 12.971 86.3559 11.6499C86.3559 10.3288 86.8787 9.13249 87.7229 8.26722C88.5671 7.40195 89.7344 6.86616 91.0234 6.86616C91.6055 6.86616 92.1548 6.97012 92.6526 7.16044C93.155 7.35237 93.6185 7.63226 94.0258 7.98253C94.0555 8.01292 94.0882 8.0401 94.121 8.06889C94.6765 8.51512 95.4786 8.41596 95.914 7.84818L98.4733 4.50547L98.4701 4.50387C98.8962 3.95048 98.815 3.14759 98.2844 2.69337C97.281 1.83929 96.1325 1.15796 94.8794 0.694135C93.6669 0.244708 92.367 0 91.0234 0C87.8852 0 85.0435 1.3035 82.9852 3.41149C80.9285 5.51948 79.6566 8.43196 79.6566 11.6499C79.6566 14.8663 80.9285 17.7788 82.9852 19.8867C85.0435 21.9947 87.8852 23.2982 91.0234 23.2982C92.4154 23.2982 93.7543 23.0391 94.9933 22.5641C95.0167 22.5577 95.0386 22.5481 95.062 22.5401C96.3635 22.0331 97.551 21.2862 98.5747 20.3538L98.5731 20.3522C99.0928 19.8772 99.1458 19.0615 98.6886 18.5209ZM91.0234 21.9883C85.4508 21.9883 80.9347 17.3597 80.9347 11.6499C80.9347 5.93852 85.4508 1.3099 91.0234 1.3099C93.4749 1.3099 95.7221 2.20715 97.4699 3.69778L94.9106 7.03889C93.8682 6.11445 92.509 5.55626 91.0234 5.55626C87.7401 5.55626 85.0778 8.28321 85.0778 11.6499C85.0778 15.015 87.7401 17.7436 91.0234 17.7436C92.5605 17.7436 93.9618 17.1438 95.0183 16.1634L97.7258 19.3765C95.9437 21.0015 93.5967 21.9883 91.0234 21.9883ZM51.5846 5.52108C48.1936 5.52108 45.4425 8.34079 45.4425 11.8179C45.4425 15.2949 48.1936 18.113 51.5846 18.113C54.9772 18.113 57.7283 15.2949 57.7283 11.8179C57.7283 8.34079 54.9772 5.52108 51.5846 5.52108ZM51.5846 5.52108C48.1936 5.52108 45.4425 8.34079 45.4425 11.8179C45.4425 15.2949 48.1936 18.113 51.5846 18.113C54.9772 18.113 57.7283 15.2949 57.7283 11.8179C57.7283 8.34079 54.9772 5.52108 51.5846 5.52108Z" fill="#2E9AFE"/>
<path d="M34.9757 3.57142C33.9333 2.50303 32.6927 1.63936 31.3179 1.03959C29.9431 0.441424 28.4341 0.110352 26.8517 0.110352C25.4675 0.110352 24.1364 0.361454 22.8974 0.826875C21.6318 1.30349 20.463 2.01042 19.4362 2.90608L19.3597 2.97165C19.2645 3.05482 19.2302 3.12359 19.2208 3.17957C19.0991 3.06921 18.9664 2.95086 18.9212 2.91087C17.899 2.02321 16.7255 1.31309 15.4475 0.831673C14.8295 0.598163 14.1882 0.417434 13.5281 0.295881C12.8695 0.174328 12.1923 0.110352 11.501 0.110352C8.33624 0.110352 5.46022 1.43624 3.37694 3.57142C1.29366 5.7082 0 8.65586 0 11.8978V21.267C0 21.9915 0.571147 22.5769 1.27806 22.5769H5.47115C6.17806 22.5769 6.75077 21.9915 6.75077 21.267V11.8978C6.75077 10.5655 7.28758 9.3484 8.15054 8.46394C9.01195 7.57948 10.1995 7.02929 11.501 7.02929C12.8024 7.02929 13.9884 7.57948 14.8514 8.46394C15.7143 9.3484 16.2512 10.5655 16.2512 11.8978V21.267C16.2512 21.9915 16.8239 22.5769 17.5308 22.5769H21.7239C22.4292 22.5769 23.0019 21.9915 23.0019 21.267V9.05411C23.4108 8.47993 23.9398 7.99692 24.5531 7.64345C25.2334 7.2532 26.0184 7.02929 26.8517 7.02929C28.1516 7.02929 29.3391 7.57948 30.2021 8.46394C31.0651 9.3484 31.6019 10.5655 31.6019 11.8978V21.267C31.6019 21.9915 32.1746 22.5769 32.8799 22.5769H37.0746C37.7799 22.5769 38.3526 21.9915 38.3526 21.267V11.8978C38.3526 8.65586 37.059 5.7082 34.9757 3.57142ZM37.0746 21.267H32.8799V11.8978C32.8799 8.50872 30.1584 5.71939 26.8517 5.71939C24.6966 5.71939 22.7912 6.90294 21.7239 8.66546V21.267H17.5308V11.8978C17.5308 8.50872 14.8092 5.71939 11.501 5.71939C8.19268 5.71939 5.47115 8.50872 5.47115 11.8978V21.267H1.27806V11.8978C1.27806 9.01572 2.42815 6.39753 4.28048 4.49746C6.13436 2.599 8.69048 1.42025 11.501 1.42025C14.0087 1.42025 16.3136 2.35909 18.0972 3.90889C19.1974 4.86692 19.0257 4.97408 20.2601 3.8977C21.1527 3.12039 22.1733 2.49983 23.2859 2.076C24.397 1.65056 25.5986 1.42025 26.8517 1.42025C32.4742 1.42025 37.0746 6.13523 37.0746 11.8978V21.267Z" fill="#2E9AFE"/>
</svg>
